X: 11222
T: The BOUQUET QUADRILLES No. 2.--l'Et\`e.
N: The title has incorrect accent mark(s).
C: R.S.
P: The Anemone.
%R: polka, march
B: W. Hamilton "Universal Tune-Book" Vol. 1 Glasgow 1844 p.122 #2
S: http://imslp.org/wiki/Hamilton's_Universal_Tune-Book_(Various)
Z: 2016 John Chambers <jc:trillian.mit.edu>
M: 2/4
L: 1/16
K: C
% - - - - - - - - - - - - - - - - - - - - - - - - -
|:\
G2GG G2GG | c2d2 e4 | A2AA A2AA | d4 (cB).A.G |\
e2cc (c2B2) | A2AA (f4 | e2).d2(c2B2) | .c4 .c4 :|\
!p!G2c2e2^d2 | e2G2 e4 | d2G2 d4 | e2G2 e4 |
G2c2e2^d2 | e2G2 e4 | d2c2B2A2 | .G4 .g4 |\
!f!G2c2e2^d2 | e2G2 e4 | d2G2 d4 | e2G2 e4 |\
G2c2e2^d2 | e2G2 e4 | G2c2(e2d2) | .c4 "^D.C.".c4 |]
% - - - - - - - - - - - - - - - - - - - - - - - - -

%%sep 1 1 500
%%sep 1 1 500

